public/assets/logos/pawzpurr-white.svg

<svg width="31" height="30" viewBox="0 0 31 30" fill="none" xmlns="http://www.w3.org/2000/svg">
<path d="M25.096 15.1842V3.81624C25.08 3.36824 24.72 3.00024 24.272 3.00024H24.216C24.216 3.00024 24.2 3.00024 24.192 3.00824C23.312 3.10424 22.432 3.20824 21.552 3.30424C19.168 3.55224 16.776 3.65624 14.384 3.60024C12.496 3.56024 10.616 3.41624 8.74398 3.20024C8.20798 3.14424 7.67998 3.08024 7.15198 3.02424C6.91998 3.00024 6.70398 2.99224 6.49598 3.12024C6.23998 3.27224 6.10398 3.54424 6.09598 3.83224C6.09598 4.32024 6.09598 4.80024 6.09598 5.28824V16.1042C6.10398 17.8082 6.53598 19.4802 7.36798 20.9682C8.17598 22.4242 9.32798 23.6562 10.656 24.6562C12.016 25.6802 14.744 27.0002 15.6 27.0002C16.68 27.0002 19.104 25.6242 19.808 25.1682C21.232 24.2482 22.512 23.0802 23.472 21.6722C24.432 20.2482 25.008 18.5922 25.088 16.8722C25.104 16.6482 25.104 16.4242 25.104 16.2002C25.104 15.8562 25.096 15.5202 25.096 15.1842ZM8.95998 20.1762C8.39198 19.1922 8.00798 18.1202 7.89598 17.0482C7.66398 14.8002 7.67198 11.4722 8.51998 9.40824C8.77598 9.58424 9.19998 9.72024 9.39198 9.76024C9.43198 9.76824 9.47998 9.77624 9.52798 9.78424C9.56798 9.80024 9.61598 9.80024 9.66398 9.79224C9.71198 9.79224 9.75198 9.77624 9.79198 9.75224C9.87198 9.70424 9.93598 9.62424 9.95998 9.53624C9.97598 9.44824 9.97598 9.34424 9.91998 9.26424C9.87198 9.19224 9.79998 9.12024 9.71198 9.10424C9.51998 9.07224 9.33598 9.02424 9.15998 8.95224C8.99998 8.88024 8.85598 8.80024 8.71198 8.69624C8.56798 8.58424 8.44798 8.44824 8.32798 8.31224C8.21598 8.16024 8.11998 8.00024 8.03998 7.83224C8.02398 7.80024 8.01598 7.76824 7.99998 7.73624C7.95198 7.62424 7.80798 7.27224 7.80798 6.63224V5.32824C7.80798 5.12824 7.99198 4.96824 8.24798 5.04824C8.63998 5.16824 9.30398 5.42424 9.55198 5.56024C9.99998 5.81624 10.288 6.07224 10.68 6.64824C10.76 6.76824 10.896 6.84024 11.056 6.80824C11.096 6.80024 11.136 6.79224 11.184 6.78424C11.232 6.78424 11.28 6.77624 11.328 6.76824C11.352 6.76024 11.376 6.76024 11.408 6.75224H11.496C11.872 6.69624 12.216 6.65624 12.536 6.64024C12.952 6.61624 13.248 6.61624 13.56 6.64824H13.568C13.568 6.64824 13.584 6.65624 13.6 6.65624H13.624C13.664 6.65624 13.696 6.67224 13.728 6.68024C13.76 6.68824 13.784 6.69624 13.816 6.70424C13.816 6.70424 13.816 6.70424 13.816 6.71224H13.84C14.016 6.80824 14.168 6.88824 14.32 7.02424C14.424 7.11224 14.528 7.21624 14.632 7.31224C14.872 7.53624 15.12 7.76824 15.408 7.95224C15.688 8.13624 15.968 8.17624 16.224 8.19224C16.848 8.23224 17.488 8.21624 18.104 8.19224C18.176 8.18424 18.256 8.18424 18.328 8.18424C18.56 8.17624 18.808 8.16024 19.04 8.15224C19.224 8.14424 19.456 8.13624 19.64 8.12824C19.72 8.12824 19.808 8.16024 19.864 8.22424C19.92 8.28824 19.912 8.40024 19.904 8.45624C19.68 9.80024 19.008 10.8722 18.712 11.1762C18.424 11.4802 17.912 11.5682 17.424 11.5762H17.408C17.056 11.5762 15.856 11.5602 15.216 11.5762C14.888 11.5842 14.568 11.6242 14.256 11.6882C13.928 11.7602 13.6 11.8562 13.28 11.9842C12.888 12.1362 12.528 12.3202 12.216 12.5282C11.84 12.7602 11.504 13.0322 11.2 13.3362C10.872 13.6642 10.584 14.0322 10.336 14.4402C10.08 14.8642 9.86398 15.3442 9.71198 15.8482C9.55198 16.3842 9.44798 16.9762 9.41598 17.6082C9.37598 18.2562 9.41598 18.9522 9.52798 19.7282C9.60798 20.3202 9.74398 20.9282 9.91998 21.5602C9.55198 21.1202 9.22398 20.6562 8.95198 20.1762H8.95998ZM17.152 24.6802C16.888 24.8002 16.64 24.9122 16.384 25.0082C16.336 25.0322 16.288 25.0482 16.24 25.0722C16.008 25.1682 15.776 25.2722 15.544 25.2562C15.432 25.2562 15.312 25.2082 15.2 25.1682L15.128 25.1442C14.992 25.0962 14.856 25.0402 14.728 24.9842C14.48 24.8882 14.224 24.7762 13.968 24.6482C12.904 24.1362 11.936 23.5042 11.096 22.7602C11.064 22.7282 11.024 22.6962 10.992 22.6642C10.92 22.5202 10.512 21.3122 10.296 20.1442C10.256 19.9362 10.224 19.7522 10.2 19.5762C10.192 19.5522 10.192 19.5282 10.184 19.5122V19.4402C10.184 19.4402 10.168 19.3842 10.168 19.3522C10.152 19.2642 10.144 19.1762 10.136 19.0882C10.104 18.7442 10.088 18.4082 10.088 18.0802C10.088 17.7522 10.112 17.4642 10.144 17.1762C10.144 17.1362 10.152 17.1042 10.152 17.0642V17.0162C10.176 16.9442 10.184 16.8722 10.192 16.8082C10.216 16.6722 10.248 16.5362 10.28 16.4082C10.336 16.1522 10.416 15.9042 10.504 15.6722C10.52 15.6082 10.544 15.5522 10.568 15.5042L10.584 15.4642C10.584 15.4642 10.608 15.4082 10.616 15.3842C10.664 15.2722 10.72 15.1682 10.776 15.0642C10.88 14.8642 11 14.6722 11.128 14.4882C11.152 14.4402 11.184 14.4002 11.216 14.3602C11.232 14.3362 11.248 14.3202 11.264 14.2962L11.288 14.2722C11.352 14.1842 11.416 14.1042 11.488 14.0322C11.624 13.8802 11.776 13.7282 11.928 13.5922C12 13.5282 12.08 13.4642 12.16 13.4002L12.184 13.3762H12.2C12.2 13.3762 12.216 13.3522 12.232 13.3442C12.272 13.3122 12.304 13.2882 12.344 13.2562C13.24 12.6402 13.944 12.3442 14.768 12.2402C15.16 12.1922 15.176 12.1842 15.56 12.1682C15.616 12.1682 15.648 12.2642 15.592 12.2962C15.408 12.4242 14.92 12.8562 14.2 13.2242C13.992 13.3362 13.864 13.5122 13.92 13.7202C13.968 13.9122 14.144 14.0322 14.368 14.0322C14.896 14.0322 15.336 14.0482 15.744 14.0722C15.872 14.0802 15.984 14.0962 16.096 14.1042C16.144 14.1122 16.2 14.1122 16.24 14.1202C16.256 14.1202 16.272 14.1282 16.296 14.1282C16.32 14.1362 16.352 14.1362 16.384 14.1442C16.424 14.1522 16.472 14.1602 16.512 14.1762C16.528 14.1842 16.544 14.1922 16.568 14.1922H16.576L16.584 14.2002C16.584 14.2082 16.584 14.2082 16.584 14.2082C16.688 14.2642 16.768 14.3122 16.848 14.3602C16.944 14.4322 17.112 14.5842 17.248 14.7362C17.392 14.8882 17.52 15.0562 17.648 15.2082C17.664 15.2402 17.688 15.2642 17.712 15.2962C17.936 15.5762 18.168 15.8802 18.52 16.0482H18.536C18.632 16.1042 18.736 16.1522 18.848 16.1762C18.968 16.2082 19.056 16.2402 19.104 16.3042C19.12 16.3202 19.144 16.4162 19.152 16.5202C19.176 16.9842 19.136 17.3842 19.032 17.7682C19.008 17.8562 18.976 17.9362 18.944 18.0162V18.0322C18.944 18.0322 18.928 18.0482 18.928 18.0562C18.92 18.0722 18.92 18.0802 18.912 18.0962C18.896 18.1362 18.872 18.1762 18.848 18.2242C18.816 18.2882 18.768 18.3602 18.728 18.4242C18.712 18.4482 18.688 18.4802 18.672 18.5042L18.656 18.5202C18.656 18.5202 18.64 18.5442 18.632 18.5522C18.632 18.5602 18.616 18.5762 18.608 18.5842C18.512 18.6882 18.408 18.7922 18.288 18.8882C18.288 18.8882 18.272 18.8962 18.256 18.9122C18.24 18.9122 18.224 18.9362 18.224 18.9362C18.192 18.9602 18.16 18.9762 18.136 19.0002C18.064 19.0402 18 19.0802 17.928 19.1122C17.872 19.1442 17.808 19.1762 17.744 19.2002H17.728C17.728 19.2002 17.704 19.2162 17.696 19.2242C17.688 19.2242 17.68 19.2322 17.672 19.2322C17.632 19.2482 17.592 19.2642 17.552 19.2722C17.416 19.3202 17.272 19.3682 17.112 19.4002C17.048 19.4082 16.984 19.4242 16.92 19.4322C16.888 19.4402 16.856 19.4482 16.832 19.4482H16.808C16.808 19.4482 16.792 19.4562 16.784 19.4562C16.784 19.4562 16.752 19.4562 16.744 19.4562C16.6 19.4722 16.448 19.4802 16.304 19.4882C16.192 19.4882 16.096 19.4962 15.992 19.5522C15.92 19.5842 15.856 19.6322 15.808 19.6802C15.712 19.7682 15.648 19.8962 15.624 20.0162C15.568 20.3122 15.696 20.5842 15.824 20.8162C15.976 21.0882 16.168 21.3362 16.344 21.5762L16.36 21.5922C16.424 21.6882 16.496 21.7762 16.56 21.8642C16.96 22.3842 17.368 22.9202 17.664 23.5122C17.704 23.5922 17.736 23.6642 17.768 23.7362L17.784 23.7762C17.784 23.7762 17.8 23.8162 17.808 23.8322C17.824 23.8722 17.832 23.9122 17.848 23.9522C17.872 24.0322 17.896 24.1122 17.912 24.1922C17.92 24.2162 17.928 24.2482 17.936 24.2722C17.68 24.4162 17.416 24.5522 17.152 24.6722V24.6802ZM23.28 17.4882C23.096 18.5042 22.704 19.5122 22.112 20.4722C21.568 21.3522 20.856 22.1682 19.984 22.8962C19.552 23.2642 19.064 23.6082 18.544 23.9282C18.376 23.2962 18.016 22.7282 17.68 22.2482C17.528 22.0242 17.36 21.8082 17.2 21.6002C16.936 21.2642 16.672 20.9202 16.456 20.5522C16.424 20.4962 16.392 20.4402 16.368 20.3922C16.36 20.3842 16.352 20.3682 16.352 20.3522C16.344 20.3442 16.336 20.3362 16.336 20.3282C16.336 20.3202 16.328 20.3202 16.328 20.3122V20.2962C16.328 20.2962 16.304 20.2242 16.288 20.1922V20.1762C16.336 20.1762 16.376 20.1762 16.416 20.1682H16.472C17.192 20.1202 17.824 19.9522 18.328 19.6722C18.96 19.3282 19.432 18.7522 19.656 18.0642C19.784 17.6802 19.84 17.2322 19.832 16.7442V16.6722C19.832 16.4322 19.824 16.1762 19.696 15.9602C19.576 15.7522 19.36 15.6482 19.168 15.5762C19.136 15.5602 19.096 15.5442 19.056 15.5282C19.016 15.5122 18.968 15.4962 18.92 15.4802C18.904 15.4722 18.888 15.4642 18.872 15.4562C18.848 15.4482 18.832 15.4402 18.808 15.4322C18.76 15.4002 18.72 15.3762 18.68 15.3522C18.576 15.2722 18.464 15.1362 18.368 15.0242H18.36C18.304 14.9362 18.24 14.8562 18.176 14.7842C17.992 14.5442 17.8 14.3042 17.576 14.0882C17.2 13.7282 16.824 13.5442 16.424 13.4882C16.152 13.4482 15.64 13.4802 15.224 13.4802C15.184 13.4802 15.104 13.4882 15.032 13.4882C15 13.4962 14.984 13.4482 15.016 13.4322C15.256 13.2962 15.768 12.9682 15.896 12.8322C15.928 12.8002 15.976 12.7442 16.008 12.7122C16.328 12.3282 16.656 12.2882 16.848 12.2562C17.04 12.2322 17.224 12.2322 17.376 12.2322H17.504C17.744 12.2402 17.984 12.2402 18.232 12.1842C18.496 12.1282 18.744 12.0162 18.944 11.8642C19.432 11.5122 19.696 10.9682 19.872 10.5362C20.032 10.1522 20.16 9.76824 20.28 9.37624C20.336 9.20824 20.392 9.04024 20.44 8.87224C20.568 8.50424 20.672 8.20824 20.784 7.93624L20.816 7.85624C20.816 7.85624 20.856 7.78424 20.872 7.74424C20.904 7.65624 20.944 7.57624 20.984 7.49624C21.064 7.33624 21.144 7.18424 21.232 7.04824C21.32 6.88824 21.416 6.74424 21.52 6.60824C21.544 6.56824 21.568 6.53624 21.592 6.49624H21.6C21.6 6.49624 21.632 6.44824 21.648 6.43224C21.712 6.35224 21.776 6.27224 21.84 6.20024C21.968 6.05624 22.104 5.92824 22.24 5.80024C22.312 5.73624 22.384 5.67224 22.464 5.60824C22.512 5.56824 22.536 5.55224 22.544 5.54424C22.592 5.50424 22.64 5.47224 22.688 5.44024C22.744 5.40024 22.816 5.34424 22.904 5.28024C23.104 5.13624 23.384 5.27224 23.384 5.52024V9.26424C23.384 10.0802 23.384 10.8562 23.104 11.6242C23.088 11.6562 23.08 11.6882 23.064 11.7202C23.064 11.7202 23.064 11.7282 23.056 11.7362C23.056 11.7442 23.048 11.7522 23.048 11.7522C23.04 11.7682 23.032 11.7922 23.024 11.8082C22.992 11.8802 22.952 11.9522 22.92 12.0242C22.88 12.0802 22.848 12.1442 22.808 12.2002C22.792 12.2242 22.776 12.2562 22.752 12.2802C22.744 12.2962 22.736 12.3122 22.72 12.3282L22.704 12.3442V12.3602C22.616 12.4562 22.544 12.5442 22.464 12.6162C22.416 12.6562 22.376 12.6962 22.336 12.7362C22.32 12.7442 22.304 12.7522 22.296 12.7682H22.288C22.288 12.7682 22.272 12.7842 22.264 12.7842C22.248 12.8002 22.24 12.8082 22.232 12.8082C22.152 12.8722 22.064 12.9202 21.976 12.9682C21.936 12.9922 21.888 13.0162 21.848 13.0322C21.84 13.0402 21.824 13.0482 21.816 13.0482C21.808 13.0562 21.8 13.0562 21.792 13.0642C21.792 13.0642 21.784 13.0722 21.776 13.0722C21.648 13.1202 21.512 13.1602 21.368 13.1922C21.328 13.2002 21.288 13.2082 21.24 13.2162H21.16C21.08 13.2402 21.008 13.2882 20.96 13.3602C20.904 13.4402 20.888 13.5522 20.912 13.6482C20.952 13.8002 21.104 13.8962 21.256 13.8882C21.296 13.8882 21.376 13.8802 21.408 13.8722C21.456 13.8642 21.512 13.8562 21.56 13.8482C21.728 13.8082 21.88 13.7602 22.024 13.7042C22.304 13.5842 22.48 13.4722 22.784 13.2402C23.208 13.9682 23.416 15.0482 23.416 15.6722C23.416 16.4242 23.376 16.9842 23.288 17.4882H23.28Z" fill="white"/>
<path d="M14.0158 8.87224C14.2368 8.87224 14.4158 8.69315 14.4158 8.47224C14.4158 8.25132 14.2368 8.07224 14.0158 8.07224C13.7949 8.07224 13.6158 8.25132 13.6158 8.47224C13.6158 8.69315 13.7949 8.87224 14.0158 8.87224Z" fill="white"/>
<path d="M17.456 16.2003C17.456 16.3763 17.312 16.5123 17.136 16.5123C16.96 16.5123 16.824 16.3763 16.824 16.2003C16.824 16.0243 16.96 15.8803 17.136 15.8803C17.312 15.8803 17.456 16.0243 17.456 16.2003Z" fill="white"/>
<path d="M16.8719 12.8563C16.8719 12.9683 16.7759 13.0643 16.6559 13.0643C16.5439 13.0643 16.4479 12.9683 16.4479 12.8563C16.4479 12.7363 16.5439 12.6403 16.6559 12.6403C16.7759 12.6403 16.8719 12.7363 16.8719 12.8563Z" fill="white"/>
</svg>

<svg fill="none" height="30" viewBox="0 0 31 30" width="31" xmlns="http://www.w3.org/2000/svg"><g fill="#fff"><path d="m25.096 15.1842v-11.36796c-.016-.448-.376-.816-.824-.816h-.056s-.016 0-.024.008c-.88.096-1.76.2-2.64.296-2.384.248-4.776.352-7.168.296-1.888-.04-3.768-.184-5.64002-.4-.536-.056-1.064-.12-1.592-.176-.232-.024-.448-.032-.656.096-.256.152-.392.424-.4.712v1.456 10.81596c.008 1.704.44 3.376 1.272 4.864.808 1.456 1.96 2.688 3.28802 3.688 1.36 1.024 4.088 2.344 4.944 2.344 1.08 0 3.504-1.376 4.208-1.832 1.424-.92 2.704-2.088 3.664-3.496.96-1.424 1.536-3.08 1.616-4.8.016-.224.016-.448.016-.672 0-.344-.008-.68-.008-1.016zm-16.13602 4.992c-.568-.984-.952-2.056-1.064-3.128-.232-2.248-.224-5.576.624-7.63996.256.176.68.312.872.352.04.008.088.016.136.024.04.016.088.016.136.008.048 0 .088-.016.128-.04.08-.048.144-.128.168-.216.016-.088.016-.192-.04-.272-.048-.072-.12-.144-.208-.16-.192-.032-.376-.08-.552-.152-.16-.072-.304-.152-.448-.256-.144-.112-.264-.248-.384-.384-.112-.152-.208-.312-.288-.48-.016-.032-.024-.064-.04-.096-.048-.112-.192-.464-.192-1.104v-1.304c0-.2.184-.36.44-.28.392.12 1.056.376 1.304.512.448.256.73602.512 1.12802 1.088.08.12.216.192.376.16.04-.008.08-.016.128-.024.048 0 .096-.008.144-.016.024-.008.048-.008.08-.016h.088c.376-.056.72-.096 1.04-.112.416-.024.712-.024 1.024.008h.008s.016.008.032.008h.024c.04 0 .072.016.104.024s.056.016.088.024v.008h.024c.176.096.328.176.48.312.104.088.208.192.312.288.24.224.488.456.776.64.28.184.56.224.816.24.624.04 1.264.024 1.88 0 .072-.008.152-.008.224-.008.232-.008.48-.024.712-.032.184-.008.416-.016.6-.024.08 0 .168.032.224.096s.048.176.04.232c-.224 1.344-.896 2.41596-1.192 2.71996-.288.304-.8.392-1.288.4h-.016c-.352 0-1.552-.016-2.192 0-.328.008-.648.048-.96.112-.328.072-.656.168-.976.296-.392.152-.752.336-1.064.544-.376.232-.712.504-1.016.808-.328.328-.616.696-.864 1.104-.256.424-.47202.904-.62402 1.408-.16.536-.264 1.128-.296 1.76-.04.648 0 1.344.112 2.12.08.592.216 1.2.392 1.832-.368-.44-.696-.904-.968-1.384zm8.19202 4.504c-.264.12-.512.232-.768.328-.048.024-.096.04-.144.064-.232.096-.464.2-.696.184-.112 0-.232-.048-.344-.088l-.072-.024c-.136-.048-.272-.104-.4-.16-.248-.096-.504-.208-.76-.336-1.064-.512-2.032-1.144-2.872-1.888-.032-.032-.072-.064-.104-.096-.072-.144-.48-1.352-.696-2.52-.04-.208-.072-.392-.096-.568-.008-.024-.008-.048-.016-.064v-.072s-.016-.056-.016-.088c-.016-.088-.024-.176-.032-.264-.032-.344-.048-.68-.048-1.008s.024-.616.056-.904c0-.04.008-.072.008-.112v-.048c.024-.072.032-.144.04-.208.024-.136.056-.272.088-.4.056-.256.136-.504.224-.736.016-.064.04-.12.064-.168l.016-.04s.024-.056.032-.08c.048-.112.104-.216.16-.32.104-.2.224-.392.352-.576.024-.048.056-.088.088-.128.016-.024.032-.04.048-.064l.024-.024c.064-.088.128-.168.2-.24.136-.152.288-.304.44-.44.072-.064.152-.128.232-.192l.024-.024h.016s.016-.024.032-.032c.04-.032.072-.056.112-.088.896-.616 1.6-.912 2.424-1.016.392-.048.408-.056.792-.072.056 0 .088.096.032.128-.184.128-.672.56-1.392.928-.208.112-.336.288-.28.496.048.192.224.312.448.312.528 0 .968.016 1.376.04.128.008.24.024.352.032.048.008.104.008.144.016.016 0 .032.008.056.008.024.008.056.008.088.016.04.008.088.016.128.032.016.008.032.016.056.016h.008l.008.008v.008c.104.056.184.104.264.152.096.072.264.224.4.376.144.152.272.32.4.472.016.032.04.056.064.088.224.28.456.584.808.752h.016c.096.056.2.104.312.128.12.032.208.064.256.128.016.016.04.112.048.216.024.464-.016.864-.12 1.248-.024.088-.056.168-.088.248v.016s-.016.016-.016.024c-.008.016-.008.024-.016.04-.016.04-.04.08-.064.128-.032.064-.08.136-.12.2-.016.024-.04.056-.056.08l-.016.016s-.016.024-.024.032c0 .008-.016.024-.024.032-.096.104-.2.208-.32.304 0 0-.016.008-.032.024-.016 0-.032.024-.032.024-.032.024-.064.04-.088.064-.072.04-.136.08-.208.112-.056.032-.12.064-.184.088h-.016s-.024.016-.032.024c-.008 0-.016.008-.024.008-.04.016-.08.032-.12.04-.136.048-.28.096-.44.128-.064.008-.128.024-.192.032-.032.008-.064.016-.088.016h-.024s-.016.008-.024.008c0 0-.032 0-.04 0-.144.016-.296.024-.44.032-.112 0-.208.008-.312.064-.072.032-.136.08-.184.128-.096.088-.16.216-.184.336-.056.296.072.568.2.8.152.272.344.52.52.76l.016.016c.064.096.136.184.2.272.4.52.808 1.056 1.104 1.648.04.08.072.152.104.224l.016.04s.016.04.024.056c.016.04.024.08.04.12.024.08.048.16.064.24.008.024.016.056.024.08-.256.144-.52.28-.784.4zm6.128-7.192c-.184 1.016-.576 2.024-1.168 2.984-.544.88-1.256 1.696-2.128 2.424-.432.368-.92.712-1.44 1.032-.168-.632-.528-1.2-.864-1.68-.152-.224-.32-.44-.48-.648-.264-.336-.528-.68-.744-1.048-.032-.056-.064-.112-.088-.16-.008-.008-.016-.024-.016-.04-.008-.008-.016-.016-.016-.024s-.008-.008-.008-.016v-.016s-.024-.072-.04-.104v-.016c.048 0 .088 0 .128-.008h.056c.72-.048 1.352-.216 1.856-.496.632-.344 1.104-.92 1.328-1.608.128-.384.184-.832.176-1.32v-.072c0-.24-.008-.496-.136-.712-.12-.208-.336-.312-.528-.384-.032-.016-.072-.032-.112-.048s-.088-.032-.136-.048c-.016-.008-.032-.016-.048-.024-.024-.008-.04-.016-.064-.024-.048-.032-.088-.056-.128-.08-.104-.08-.216-.216-.312-.328h-.008c-.056-.088-.12-.168-.184-.24-.184-.24-.376-.48-.6-.696-.376-.36-.752-.544-1.152-.6-.272-.04-.784-.008-1.2-.008-.04 0-.12.008-.192.008-.032.008-.048-.04-.016-.056.24-.136.752-.464.88-.6.032-.032.08-.088.112-.12.32-.384.648-.424.84-.456.192-.024.376-.024.528-.024h.128c.24.008.48.008.728-.048.264-.056.512-.168.712-.32.488-.352.752-.896.928-1.328.16-.384.288-.76796.408-1.15996.056-.168.112-.336.16-.504.128-.368.232-.664.344-.936l.032-.08s.04-.072.056-.112c.032-.088.072-.168.112-.248.08-.16.16-.312.248-.448.088-.16.184-.304.288-.44.024-.04.048-.072.072-.112h.008s.032-.048.048-.064c.064-.08.128-.16.192-.232.128-.144.264-.272.4-.4.072-.064.144-.128.224-.192.048-.04.072-.056.08-.064.048-.04.096-.072.144-.104.056-.04.128-.096.216-.16.2-.144.48-.008.48.24v3.744c0 .81596 0 1.59196-.28 2.35996-.016.032-.024.064-.04.096 0 0 0 .008-.008.016 0 .008-.008.016-.008.016-.008.016-.016.04-.024.056-.032.072-.072.144-.104.216-.04.056-.072.12-.112.176-.016.024-.032.056-.056.08-.008.016-.016.032-.032.048l-.016.016v.016c-.088.096-.16.184-.24.256-.048.04-.088.08-.128.12-.016.008-.032.016-.04.032h-.008s-.016.016-.024.016c-.016.016-.024.024-.032.024-.08.064-.168.112-.256.16-.04.024-.088.048-.128.064-.008.008-.024.016-.032.016-.008.008-.016.008-.024.016 0 0-.008.008-.016.008-.128.048-.264.088-.408.12-.04.008-.08.016-.128.024h-.08c-.08.024-.152.072-.2.144-.056.08-.072.192-.048.288.04.152.192.248.344.24.04 0 .12-.008.152-.016.048-.008.104-.016.152-.024.168-.04.32-.088.464-.144.28-.12.456-.232.76-.464.424.728.632 1.808.632 2.432 0 .752-.04 1.312-.128 1.816z"/><path d="m14.0158 8.87224c.221 0 .4-.17909.4-.4 0-.22092-.179-.4-.4-.4-.2209 0-.4.17908-.4.4 0 .22091.1791.4.4.4z"/><path d="m17.456 16.2003c0 .176-.144.312-.32.312s-.312-.136-.312-.312.136-.32.312-.32.32.144.32.32z"/><path d="m16.8719 12.8563c0 .112-.096.208-.216.208-.112 0-.208-.096-.208-.208 0-.12.096-.216.208-.216.12 0 .216.096.216.216z"/></g></svg>
